src/hbcore/resources/themes/icons/hbdefault/scalable/qtg_mono_world_clock.svg

<?xml version="1.0" encoding="UTF-8" standalone="no"?>
<!DOCTYPE svg PUBLIC "-//W3C//DTD SVG 1.1 Tiny//EN" "http://www.w3.org/Graphics/SVG/1.1/DTD/svg11-tiny.dtd">
<svg xmlns="http://www.w3.org/2000/svg" xmlns:xlink="http://www.w3.org/1999/xlink" baseProfile="tiny" height="30" viewBox="0 0 30 30" width="30">
<rect fill="none" height="30" width="30"/>
<path d="M15,1c-7.732,0-14,6.268-14,14s6.268,14,14,14c7.733,0,14-6.268,14-14s-6.27-14-14-14zm-9.16,20.42c-0.775-1.102-1.351-2.348-1.689-3.689l1.636-0.323,1.4,2.8-1.347,1.21zm16.27,2.22l-0.701-0.635,1.398-2.799,1.885,0.371c-0.68,1.18-1.55,2.22-2.59,3.07zm1.11-13.12l-1.61-0.62,0.914,1.239,0.656-0.291s0.803,0.768,0.766,1.021c-0.035,0.257-1.238,1.424-1.238,1.424l-1.057,0.376-1.391-1.144-1.06-0.88,0.656,1.567,0.877,0.914s1.533-0.219,1.752-0.037c0.221,0.182-0.291,1.572-0.291,1.572l-2.557,2.626-0.256,2.627c-1.424,0.732-1.569,1.859-1.569,1.859s-0.364-0.068-1.313,0.99-1.973,0.781-1.973,0.781c-1.204,0-1.423-0.781-1.423-1.039,0-0.254-1.205-2.225-1.205-2.885,0-0.656,0.365-1.459,0.365-1.459,0.072-0.949-0.949-3.501-0.949-3.501h-1.059l-0.365-0.806c-3.432,0.73-3.577-0.146-4.089-1.096-0.511-0.949,0.074-3.504,0.402-3.905,0.21-0.257,1.328-1.063,2.109-1.614l7.998,2.552,1.41-2.78-5.6-1.399-3.122,1.175c0.058-0.04,0.1-0.068,0.1-0.068l-0.329-0.475c-0.22-0.473,1.205-1.131,1.205-1.131,0.548,0.366,0.912,0,0.912,0l0.146-0.365-0.15-0.547,0.677-0.842c1.08-0.352,2.24-0.548,3.44-0.548,1.259,0,2.465,0.219,3.595,0.604l-0.8,0.796,1.399,1.4,1.326-1.326c2.934,1.677,5.043,4.64,5.546,8.119-0.585-1.176-1.067-2.545-1.067-2.545l-1.79-0.32z"/>
</svg>

<?xml version="1.0" encoding="UTF-8"?>
<!DOCTYPE svg PUBLIC "-//W3C//DTD SVG 1.1 Tiny//EN" "http://www.w3.org/Graphics/SVG/1.1/DTD/svg11-tiny.dtd">
<svg baseProfile="tiny" height="30" viewBox="0 0 30 30" width="30" xmlns="http://www.w3.org/2000/svg" xmlns:xlink="http://www.w3.org/1999/xlink">
<rect fill="none" height="30" width="30"/>
<path d="M15,1C7.268,1,1,7.268,1,15s6.268,14,14,14c7.733,0,14-6.268,14-14S22.733,1,15,1z M5.84,21.422 c-0.775-1.102-1.351-2.348-1.689-3.689l1.636-0.323l1.4,2.8L5.84,21.422z M22.114,23.643l-0.701-0.635l1.398-2.799l1.885,0.371 C24.022,21.748,23.151,22.789,22.114,23.643z M23.216,10.521L21.608,9.9l0.914,1.239l0.656-0.291c0,0,0.803,0.768,0.766,1.021 c-0.035,0.257-1.238,1.424-1.238,1.424l-1.057,0.376l-1.391-1.144L19.2,11.652l0.656,1.567l0.877,0.914c0,0,1.533-0.219,1.752-0.037 c0.221,0.182-0.291,1.572-0.291,1.572l-2.557,2.626l-0.256,2.627c-1.424,0.732-1.569,1.859-1.569,1.859s-0.364-0.068-1.313,0.99 s-1.973,0.781-1.973,0.781c-1.204,0-1.423-0.781-1.423-1.039c0-0.254-1.205-2.225-1.205-2.885c0-0.656,0.365-1.459,0.365-1.459 c0.072-0.949-0.949-3.501-0.949-3.501h-1.059l-0.365-0.806c-3.432,0.73-3.577-0.146-4.089-1.096 c-0.511-0.949,0.074-3.504,0.402-3.905c0.21-0.257,1.328-1.063,2.109-1.614l7.998,2.552L17.71,8l-5.6-1.399L8.988,7.776 c0.058-0.04,0.1-0.068,0.1-0.068L8.759,7.233C8.539,6.76,9.964,6.102,9.964,6.102c0.548,0.366,0.912,0,0.912,0l0.146-0.365 L10.876,5.19l0.677-0.842C12.641,3.996,13.797,3.8,15,3.8c1.259,0,2.465,0.219,3.595,0.604L17.8,5.2l1.399,1.4l1.326-1.326 c2.934,1.677,5.043,4.64,5.546,8.119c-0.585-1.176-1.067-2.545-1.067-2.545L23.216,10.521z"/>
</svg>
